src/lib/packages/icons/src/assets/line/palette.svg

<svg width="24" height="24" viewBox="0 0 24 24" fill="none" xmlns="http://www.w3.org/2000/svg">
<path d="M22.556 9.629C21.59 4.852 17.014 1.25 11.91 1.25C6.03197 1.25 1.25 6.073 1.25 12C1.25 17.927 6.072 22.75 12 22.75C13.161 22.75 13.987 22.242 14.211 21.39C14.46 20.443 13.862 19.43 12.65 18.746C12.336 18.569 12.168 18.25 12.241 17.971C12.335 17.613 12.914 17.195 14.234 17.195H16.459C17.25 17.195 19.955 17.042 21.576 15.068C22.676 13.728 23.006 11.899 22.556 9.629ZM20.417 14.115C19.213 15.581 17.084 15.695 16.459 15.695H14.234C11.501 15.695 10.907 17.146 10.79 17.59C10.543 18.528 11.005 19.54 11.912 20.052C12.628 20.456 12.794 20.878 12.76 21.009C12.734 21.109 12.48 21.25 11.999 21.25C6.89802 21.25 2.74902 17.101 2.74902 12C2.74902 6.899 6.858 2.75 11.909 2.75C16.313 2.75 20.258 5.83501 21.084 9.92401C21.443 11.729 21.218 13.139 20.417 14.115ZM18.27 10C18.27 10.69 17.71 11.25 17.02 11.25C16.33 11.25 15.765 10.69 15.765 10C15.765 9.31 16.32 8.75 17.01 8.75H17.02C17.71 8.75 18.27 9.31 18.27 10ZM11.27 7C11.27 7.69 10.71 8.25 10.02 8.25C9.33002 8.25 8.76501 7.69 8.76501 7C8.76501 6.31 9.32001 5.75 10.01 5.75H10.02C10.71 5.75 11.27 6.31 11.27 7ZM15.27 7C15.27 7.69 14.71 8.25 14.02 8.25C13.33 8.25 12.765 7.69 12.765 7C12.765 6.31 13.32 5.75 14.01 5.75H14.02C14.71 5.75 15.27 6.31 15.27 7ZM8.27002 10C8.27002 10.69 7.71002 11.25 7.02002 11.25C6.33002 11.25 5.76501 10.69 5.76501 10C5.76501 9.31 6.32001 8.75 7.01001 8.75H7.02002C7.71002 8.75 8.27002 9.31 8.27002 10ZM8.27002 14C8.27002 14.69 7.71002 15.25 7.02002 15.25C6.33002 15.25 5.76501 14.69 5.76501 14C5.76501 13.31 6.32001 12.75 7.01001 12.75H7.02002C7.71002 12.75 8.27002 13.31 8.27002 14Z" fill="currentColor"/>
</svg>

<svg xmlns="http://www.w3.org/2000/svg" width="24" height="24" fill="none"><path fill="currentColor" d="M22.556 9.629C21.59 4.852 17.014 1.25 11.91 1.25 6.032 1.25 1.25 6.073 1.25 12S6.072 22.75 12 22.75c1.161 0 1.987-.508 2.211-1.36.249-.947-.349-1.96-1.561-2.644-.314-.177-.482-.496-.409-.775.094-.358.673-.776 1.993-.776h2.225c.791 0 3.496-.153 5.117-2.127 1.1-1.34 1.43-3.169.98-5.439Zm-2.139 4.486c-1.204 1.466-3.333 1.58-3.958 1.58h-2.225c-2.733 0-3.327 1.451-3.444 1.895-.247.938.215 1.95 1.122 2.462.716.404.882.826.848.957-.026.1-.28.241-.761.241-5.101 0-9.25-4.149-9.25-9.25s4.109-9.25 9.16-9.25c4.404 0 8.349 3.085 9.175 7.174.359 1.805.134 3.215-.667 4.191ZM18.27 10c0 .69-.56 1.25-1.25 1.25s-1.255-.56-1.255-1.25.555-1.25 1.245-1.25h.01c.69 0 1.25.56 1.25 1.25Zm-7-3c0 .69-.56 1.25-1.25 1.25S8.765 7.69 8.765 7s.555-1.25 1.245-1.25h.01c.69 0 1.25.56 1.25 1.25Zm4 0c0 .69-.56 1.25-1.25 1.25S12.765 7.69 12.765 7s.555-1.25 1.245-1.25h.01c.69 0 1.25.56 1.25 1.25Zm-7 3c0 .69-.56 1.25-1.25 1.25S5.765 10.69 5.765 10 6.32 8.75 7.01 8.75h.01c.69 0 1.25.56 1.25 1.25Zm0 4c0 .69-.56 1.25-1.25 1.25S5.765 14.69 5.765 14s.555-1.25 1.245-1.25h.01c.69 0 1.25.56 1.25 1.25Z"/></svg>
